lib/typescript/assets/images/icons/facebook_rounded.svg

<?xml version="1.0" encoding="UTF-8"?>
<svg width="20px" height="20px" viewBox="0 0 20 20" version="1.1" xmlns="http://www.w3.org/2000/svg" xmlns:xlink="http://www.w3.org/1999/xlink">
    <!-- Generator: Sketch 61.2 (89653) - https://sketch.com -->
    <title>Group 3</title>
    <desc>Created with Sketch.</desc>
    <defs>
        <polygon id="path-1" points="0.001171875 0.00078125 20 0.00078125 20 19.8785156 0.001171875 19.8785156"></polygon>
    </defs>
    <g id="Symbols" stroke="none" stroke-width="1" fill="none" fill-rule="evenodd">
        <g id="icon/airyfont/socialmedia/facebook" transform="translate(-2.000000, -2.000000)">
            <g id="Group-3" transform="translate(2.000000, 2.000000)">
                <mask id="mask-2" fill="white">
                    <use xlink:href="#path-1"></use>
                </mask>
                <g id="Clip-2"></g>
                <path d="M12.2146484,3.90625 C10.0018115,3.90625 8.53158085,5.20545349 8.44185241,7.56520882 L8.4375,7.796875 L8.4375,10 L5.8984375,10 L5.8984375,12.890625 L8.4375,12.890625 L8.4375,19.8785156 C3.65685547,19.1283203 0,14.9912891 0,10 C0,4.47714844 4.47714844,0 10,0 C15.5228516,0 20,4.47714844 20,10 C20,14.8971138 16.4798372,18.9719018 11.8318853,19.8324516 L11.5625,19.8785156 L11.5625,12.890625 L13.8925781,12.890625 L14.3359375,10 L11.5625,10 L11.5625,8.12416016 C11.5625,7.33333984 11.9499023,6.5625 13.1921484,6.5625 L14.453125,6.5625 L14.453125,4.1015625 L14.0041738,4.0359225 C13.5706494,3.97919078 12.8832541,3.90625 12.2146484,3.90625 Z" id="Path" fill="#212428" mask="url(#mask-2)"></path>
            </g>
        </g>
    </g>
</svg>

<svg width="20" height="20" xmlns="http://www.w3.org/2000/svg" xmlns:xlink="http://www.w3.org/1999/xlink"><defs><path id="a" d="M.001 0H20v19.88H.001z"/></defs><g fill="none" fill-rule="evenodd"><mask id="b" fill="#fff"><use xlink:href="#a"/></mask><path d="M12.215 3.906c-2.213 0-3.683 1.3-3.773 3.66l-.005.23V10H5.899v2.89h2.54v6.989C3.657 19.129 0 14.99 0 10 0 4.477 4.477 0 10 0s10 4.477 10 10c0 4.897-3.52 8.972-8.168 9.832l-.27.047V12.89h2.33l.445-2.89h-2.774V8.124c0-.79.388-1.562 1.63-1.562h1.261v-2.46l-.449-.066c-.433-.057-1.12-.13-1.79-.13z" fill="#212428" mask="url(#b)"/></g></svg>
